X: 40
T: Studium na temat oryginalny op. 62 – Messo vivo
C: Ignacy Feliks Dobrzy?ski
L: 1/4
M: C
N: Derived from pl-wtm--r-1143-1--004_dobrzynski-ignacy-feliks--studium-na-temat-oryginalny-op-62-messo-vivo.krn
%%staves [1 2 3 4]
V: 1 clef=treble
V: 2 clef=treble
V: 3 clef=alto
V: 4 clef=bass
K: A
[V:1] E2FG | 
[V:2] z4 | 
[V:3] C2DB, | 
[V:4] z!accent!A,3- | 
[V:1] ABc2 | 
[V:2] zGA2- | 
[V:3] CE2.=G | 
[V:4] A,4 | 
[V:1] d2cA | 
[V:2] A3E | 
[V:3] F2EC | 
[V:4] D,F,A,2 | 
[V:1] !accent!B2AE | 
[V:2] !accent!G2Az | 
[V:3] !accent!D2Cz | 
[V:4] E,E,,A,,z | 
[V:1] E2FG | 
[V:2] C2D^E | 
[V:3] F,3C- | 
[V:4] zA,,D,C, | 
[V:1] ABc2 | 
[V:2] FGA=G | 
[V:3] CE3 | 
[V:4] F,E,A,^A, | 
[V:1] d2cA | 
[V:2] F2^EF | 
[V:3] DB,2A, | 
[V:4] B,B,,C,F, | 
[V:1] !accent!B2Az | 
[V:2] !accent!D2Cz | 
[V:3] !accent!G,2A,z | 
[V:4] !accent!=F,E,A,,z | 
[V:1] A2GF | 
[V:2] C4- | 
[V:3] C2B,A, | 
[V:4] zF,^E,F, | 
[V:1] ^EFG2 | 
[V:2] C3^E | 
[V:3] G,A,B,2 | 
[V:4] C,4 | 
[V:1] Ac!trill!^d2{/cd} | 
[V:2] F3G/F/ | 
[V:3] A,3B,/A,/ | 
[V:4] F,2B,,2 | 
[V:1] e2E2 | 
[V:2] EG/A/BA/G/ | 
[V:3] G,B,/C/DC/B,/ | 
[V:4] E,4 | 
[V:1] E2FG | 
[V:2] ACD^E | 
[V:3] C!accent!A,2!accent!C- | 
[V:4] A,,2D,C, | 
[V:1] ABc2 | 
[V:2] FGA=G | 
[V:3] CE3 | 
[V:4] F,E,A,,^A,, | 
[V:1] d2cA | 
[V:2] F2^EF | 
[V:3] DB,G,C | 
[V:4] B,,2C,F, | 
[V:1] !accent!B2Az | 
[V:2] D2Cz | 
[V:3] G,2A,z | 
[V:4] !accent!=F,E,A,,z | 
[V:1] A2GF | 
[V:2] F2D^D | 
[V:3] C2B,A, | 
[V:4] F,F,,B,,^B,, | 
[V:1] ^EFG2 | 
[V:2] C^D^E2 | 
[V:3] G,3C- | 
[V:4] C,4 | 
[V:1] Ac!trill!^d2{/cd} | 
[V:2] F3G/F/ | 
[V:3] CA,2B,/A,/ | 
[V:4] F,2B,,2 | 
[V:1] e2Ez | 
[V:2] EG/A/BA/G/ | 
[V:3] G,B,/C/DC/B,/ | 
[V:4] E,4 | 
[V:1] E2FG | 
[V:2] ACD^E | 
[V:3] CA,2C- | 
[V:4] A,,2D,C, | 
[V:1] ABc2 | 
[V:2] FGA=G | 
[V:3] CE3 | 
[V:4] F,E,A,,^A,, | 
[V:1] d2cA | 
[V:2] F2^EF | 
[V:3] DB,G,C | 
[V:4] B,,2C,F, | 
[V:1] B2Az |]  
[V:2] D2Cz |]  
[V:3] G,2A,z |]  
[V:4] =F,E,A,,z |]  

